X: 42764
T: White Petticoat, The
R: jig
M: 6/8
K: Eminor
|:B|Bed cBA|GFE B,EG|FBB {d/}cBB|eBB {d/}cBA|
Bed {d/}cBA|GFE B,EG|FBB {d/}cBA|GEE E2:|
|:g|{a/}gec Gce|gaf {a/}gec|{d/}cBA EAc|Be^d eBE|
FBB GBB|FBA GFE|B,EG cBA|GEE E2:|

